svg/arrow_expand_up.svg

<svg xmlns="http://www.w3.org/2000/svg" viewBox="0 0 24 24"><path d="M2 20v2h20v-2h-9V5.83l5.5 5.5 1.42-1.41L12 2 4.08 9.92l1.42 1.41 5.5-5.5V20z"/></svg>

<?xml version="1.0" encoding="UTF-8"?><!DOCTYPE svg PUBLIC "-//W3C//DTD SVG 1.1//EN" "http://www.w3.org/Graphics/SVG/1.1/DTD/svg11.dtd"><svg xmlns="http://www.w3.org/2000/svg" xmlns:xlink="http://www.w3.org/1999/xlink" version="1.1" id="mdi-arrow-expand-up" width="24" height="24" viewBox="0 0 24 24"><path d="M2,20V22H22V20H13V5.83L18.5,11.33L19.92,9.92L12,2L4.08,9.92L5.5,11.33L11,5.83V20H2Z" /></svg>
